X:37
T:Will with a Wisp. Ru1.117
%%VWML:RutherfordVol1-2248-p59-0p59
Z:Transcription by Village Music Project, Steve Mansfield July 2015
F:http://www.village-music-project.org.uk/
F:http://www.vwml.org/record/RutherfordVol1/2248/p59
L:1/8
Q:1/4=100
K:Dmix
d2e/f/g "tr"f>edf|ecBcd2d2|d2(e/f/g) "tr"f>edf|ecBcd2-d2:|
|:c|B2GBc2(A/B/c)|B2GB (c/A/F) (A/B/c)|"tr"B2GBc2Ag|fdecd2-d:|
W:The first &2d. Cu. foot it all 4 & Hands across
W:half round thye same back again :| Gallop down
W:& up again & cast off :|| Right Hand & Left
W:with the 2d. Couple
T:McDonald's Rant. Ru1.118
B:Rutherford's Country Dances Vol 1, 1756
Z:village music project, Ruairidh Greig July 2015
M:C|
L:1/8
Q:1/4=120
K:D
FA2f/g/ a>fe>d|g>fe>d B>dB>A|FA2f/g/ a>fe>d|(e/f/g) (f/g/a)e2d2||
FA3F>GA>F|G/G/GG2G>AB>G|FA2B A>BA>F|G>AF>dE2D2|]
W:Foot it all Four & Hands across Quite round .|
W:The same back again :| Cast off 2 Couples :|.
W:Lead up to the Top foot it & cast off :||: The first
W:sets to the 2d. Wo. & turns her .|| the first Wo.
W:does the same :|| Cross over & half figure :|
W:Right Hand & Left :|
|:
